svgs/duotone/game-board.svg

<svg xmlns="http://www.w3.org/2000/svg" viewBox="0 0 448 512"><!--! Font Awesome Pro 6.0.0-alpha3 by @fontawesome - https://fontawesome.com License - https://fontawesome.com/license (Commercial License) --><defs><style>.fa-secondary{opacity:.4}</style></defs><path class="fa-primary" d="M64 256l0 80h80V256H64zM384 416l-.0001-80h-80V416H384zM144 416h80v-80h-80V416zM64 96L64 176h80V96H64zM224 176h-80V256h80V176zM224 256v80h80V256H224zM384 256V176h-80V256H384zM304 96h-80v80h80V96z"/><path class="fa-secondary" d="M384 32h-320c-35.35 0-64 28.65-64 64v320c0 35.35 28.65 64 64 64h320c35.35 0 64-28.65 64-64V96C448 60.65 419.3 32 384 32zM384 416h-320l0-320h319.1L384 416z"/></svg>

<svg xmlns="http://www.w3.org/2000/svg" viewBox="0 0 448 512"><!--! Font Awesome Pro 6.4.2 by @fontawesome - https://fontawesome.com License - https://fontawesome.com/license (Commercial License) Copyright 2023 Fonticons, Inc. --><defs><style>.fa-secondary{opacity:.4}</style></defs><path class="fa-primary" d="M64 256l0 80h80V256H64zM384 416l0-80H304v80h80zm-240 0h80V336H144v80zM64 96l0 80h80V96H64zm160 80H144v80h80V176zm0 80v80h80V256H224zm160 0V176H304v80h80zM304 96H224v80h80V96z"/><path class="fa-secondary" d="M64 32C28.7 32 0 60.7 0 96V416c0 35.3 28.7 64 64 64H384c35.3 0 64-28.7 64-64V96c0-35.3-28.7-64-64-64H64zM384 96V416H64V96H384z"/></svg>
